Gruvbox-Material-Icons/actions/22/bookmark-new.svg

<svg width="22" height="22" version="1.1" viewBox="0 0 22 22" xmlns="http://www.w3.org/2000/svg">
  <defs>
    <style id="current-color-scheme" type="text/css">.ColorScheme-Text { color:#ebdbb2; } .ColorScheme-Highlight { color:#458588; }</style>
  </defs>
  <path class="ColorScheme-Text" d="m7 3s-1 0-1 1v14l5-3 5 3v-14s0-1-1-1zm3 3h2v2h2v2h-2v2h-2v-2h-2v-2h2z" fill="currentColor"/>
</svg>

<svg xmlns="http://www.w3.org/2000/svg" width="22" height="22" version="1.1" viewBox="0 0 22 22">
 <defs>
  <style id="current-color-scheme" type="text/css">
   .ColorScheme-Text { color:#ebdbb2; } .ColorScheme-Highlight { color:#458588; }
  </style>
 </defs>
 <path style="fill:currentColor" class="ColorScheme-Text" d="M 7,3 C 7,3 6,3 6,4 V 18 L 11,15 16,18 V 4 C 16,4 16,3 15,3 Z M 10,6 H 12 V 8 H 14 V 10 H 12 V 12 H 10 V 10 H 8 V 8 H 10 Z"/>
</svg>
